build/img/sprite.svg

<svg xmlns="http://www.w3.org/2000/svg" xmlns:xlink="http://www.w3.org/1999/xlink"><symbol id="boat" viewBox="0 0 44 32"><g fill="none"><path d="M41.4386 25.7195L1.64777 17.2126C1.34201 17.1472 1.13593 17.7761 1.29431 18.277C3.83755 26.326 9.85818 32 16.8667 32H40.6041C40.7654 32 40.9069 31.8011 40.9546 31.5089L41.7481 26.6154C41.8155 26.1995 41.6667 25.7682 41.4386 25.7195Z" fill="#011C40"/><path d="M43.8843 11.771C43.7677 11.426 43.5778 11.1964 43.3644 11.1421L32.3643 8.35935C31.9676 8.26054 31.5943 8.79339 31.5401 9.55451C31.4859 10.3156 31.7689 11.0169 32.17 11.1183L33.4153 11.4329C33.5971 11.4788 33.7335 11.7738 33.7335 12.1216V14.2727C33.7335 14.6859 33.5443 15.0087 33.328 14.9642L30.3947 14.3673C30.2084 14.3311 30.0669 14.0319 30.0669 13.6771V7.58714C30.0669 7.44936 30.0881 7.31582 30.1285 7.20168L31.4103 3.55359C31.557 3.13618 31.5739 2.60186 31.4551 2.15527C31.3356 1.70721 31.0987 1.41502 30.8347 1.39138L15.4347 6.54269e-05C15.1875 -0.00417389 14.9478 0.197683 14.8033 0.581667C14.8033 0.581667 11.8729 8.39554 11.2305 10.1152C11.1535 10.3212 11.0244 10.4311 10.8924 10.4032L0.811081 8.35527C0.602854 8.31353 0.397462 8.44022 0.242774 8.70306C0.0887737 8.96752 0 9.34319 0 9.73826C0 11.0782 0.0916956 12.3916 0.264774 13.6662C0.302931 13.9473 0.432009 14.1517 0.583775 14.1851L42.015 23.0425C42.1902 23.08 42.3545 22.8756 42.4066 22.5555L43.9679 12.93C44.0309 12.5391 44.0002 12.1147 43.8843 11.771ZM21.1626 4.06427L20.5906 11.6639C20.5628 12.0326 20.3904 12.2956 20.1946 12.258C18.7639 11.984 13.3885 10.9113 13.3885 10.9113C13.1098 10.8542 12.9661 10.2489 13.1289 9.8149L15.6479 3.12379C15.7205 2.93172 15.8393 2.82182 15.964 2.83307L20.8172 3.27135C21.0328 3.29075 21.1934 3.65794 21.1626 4.06427ZM29.1127 5.0786L28.6617 6.35871C28.6214 6.47285 28.6001 6.60769 28.6001 6.74547V13.2306C28.6001 13.6438 28.4109 13.9667 28.1946 13.9221L22.3748 12.7395C22.1687 12.6978 22.0213 12.3388 22.0506 11.9492L22.6438 4.06997C22.6702 3.71517 22.8352 3.45641 23.0245 3.47304L28.8252 3.99758C29.1098 4.02252 29.2711 4.62777 29.1127 5.0786ZM38.1334 15.1674C38.1334 15.5805 37.9442 15.9034 37.7279 15.8589C37.7279 15.8589 36.2055 15.5332 35.5235 15.3803C35.3387 15.34 35.2001 15.0421 35.2001 14.6901V12.6782C35.2001 12.2581 35.3952 11.9324 35.6152 11.988L37.8152 12.5445C37.9971 12.5918 38.1334 12.8868 38.1334 13.2347V15.1674ZM42.1837 14.4689L41.9116 16.144C41.8603 16.4613 41.6968 16.6658 41.5222 16.6311L39.9272 16.3069C39.7417 16.2694 39.6001 15.9702 39.6001 15.6154V13.7927C39.6001 13.3725 39.7952 13.0469 40.0152 13.1025L41.8815 13.5742C42.1059 13.6313 42.2504 14.0571 42.1837 14.4689Z" fill="#011C40"/></g></symbol><symbol id="cruise-ship" viewBox="0 0 27 32"><g fill="none"><path d="M4.40549 16.3962L13.2165 9.93576C13.4162 9.8063 13.6711 9.8063 13.8708 9.93576L22.7254 16.3962V8.68818C22.7739 7.6312 21.9743 6.7343 20.9396 6.68484C20.9242 6.68407 20.9089 6.68356 20.8934 6.68322H6.23749C5.20189 6.70667 4.38094 7.58319 4.4039 8.6411C4.40423 8.6568 4.40473 8.67249 4.40549 8.68818V16.3962Z" fill="#011C40"/><path d="M15.7464 0H11.3845V5.34662H15.7464V0Z" fill="#011C40"/><path d="M24.2956 30.1638L27 21.03L23.2052 18.3122L22.9434 18.1785L14.0016 11.8072V30.6094H13.5217L12.6929 30.5649V11.8072L0 21.03L2.79163 30.1193L4.4039 31.9904C4.4039 31.9904 5.7624 31.9904 7.15817 31.9904C7.15817 31.9904 12.2467 31.997 13.5218 31.9904C14.8198 32.012 17.1251 31.9904 17.1251 31.9904H22.8127L24.2956 30.1638Z" fill="#011C40"/></g></symbol><symbol id="icon-close" viewBox="0 0 20 20"><g fill="none"><path d="M.293 18.291a1 1 0 101.414 1.414L10 11.413l8.292 8.292a1 1 0 101.414-1.414l-8.292-8.292 8.292-8.292A1 1 0 1018.291.293L9.999 8.585 1.707.293A1 1 0 10.293 1.707L8.585 10 .293 18.291z"/></g></symbol><symbol id="logo" viewBox="0 0 70 38"><g fill="none"><path fill-rule="evenodd" clip-rule="evenodd" d="M0.903517 31.125L14.6726 12.5429L18.4395 14.556L27.4026 0L32.9879 6.65881L35.0665 4.95532L43.1199 15.1755L48.8355 8.36191L64.8126 31.125L49.42 11.7689L47.0817 19.8984L49.225 26.3249L35.456 7.35558L35.3069 13.8279L43.1199 31.125L28.5064 4.33574L32.7282 18.8145L26.8181 4.72292L23.5706 14.0916L24.2198 7.97472L16.1013 30.0411L17.0753 20.75L13.6981 17.0338L0.903517 31.125Z" fill="#F9FBFD"/><path fill-rule="evenodd" clip-rule="evenodd" d="M69.4414 34.0314C47.641 16.428 13.7091 40.6289 0 31.2961C15.0723 44.5215 50.3019 22.1644 69.4414 34.0314Z" fill="#F9FBFD"/><path fill-rule="evenodd" clip-rule="evenodd" d="M70 35.4157C52.8956 24.5171 27.4568 39.6838 14.4189 36.1717C28.5467 43.0283 54.8482 27.8361 70 35.4157Z" fill="#F9FBFD"/></g></symbol><symbol id="ok" viewBox="0 0 12 20"><g fill="none"><path d="M5.875 3.02543C7.07072 3.02543 8.04314 3.9842 8.04314 5.16312C8.04314 6.3385 7.07072 7.29726 5.875 7.29726C4.67928 7.29726 3.70687 6.3385 3.70687 5.16312C3.70687 3.9842 4.67928 3.02543 5.875 3.02543ZM5.875 10.3227C8.76345 10.3227 11.1117 8.00746 11.1117 5.16312C11.1117 2.31524 8.76345 0 5.875 0C2.98655 0 0.641942 2.31524 0.641942 5.16312C0.641942 8.00746 2.98655 10.3227 5.875 10.3227ZM7.99271 14.5342C9.05877 14.2927 10.0852 13.8772 11.0324 13.2913C11.7491 12.8474 11.9652 11.9135 11.515 11.2069C11.0612 10.4967 10.1176 10.2836 9.39732 10.7311C7.2544 12.0591 4.4956 12.0591 2.34908 10.7311C1.63237 10.2836 0.685162 10.4967 0.234968 11.2069C-0.215227 11.9135 0.000865602 12.8474 0.717575 13.2913C1.66478 13.8772 2.69123 14.2927 3.75729 14.5342L0.829223 17.4176C0.231365 18.007 0.231365 18.9658 0.829223 19.5552C1.13175 19.85 1.52072 19.9991 1.91329 19.9991C2.30586 19.9991 2.69843 19.85 3.00096 19.5552L5.875 16.7216L8.75264 19.5552C9.3505 20.1483 10.3193 20.1483 10.9208 19.5552C11.5186 18.9658 11.5186 18.007 10.9208 17.4176L7.99271 14.5342Z" fill="#F9FBFD"/></g></symbol><symbol id="reddit" viewBox="0 0 20 20"><g fill="none"><path d="M11.9453 0C11.304 0 10.7021 0.325343 10.3161 0.794521C9.93009 1.2637 9.71732 1.83562 9.56231 2.43836C9.31611 3.40753 9.24012 4.48288 9.22188 5.45205C7.41944 5.57192 5.78722 6.10616 4.43159 6.93151C3.88143 6.46918 3.21882 6.21233 2.58356 6.21918C1.86015 6.22603 1.17322 6.53767 0.662576 7.17808C-0.313112 8.40068 -0.200649 10.4007 0.930054 11.589C0.860145 11.9555 0.808473 12.3322 0.808473 12.7123C0.808473 16.7397 4.92399 20 10 20C15.076 20 19.1915 16.7363 19.1915 12.7123C19.1915 12.3322 19.1399 11.9555 19.0699 11.589C20.2006 10.4007 20.3131 8.40068 19.3374 7.17808C18.8268 6.53767 18.1399 6.22603 17.4164 6.21918C16.7812 6.21233 16.1186 6.46918 15.5684 6.93151C14.2189 6.10959 12.5958 5.57534 10.8024 5.45205C10.8268 4.55822 10.8906 3.63014 11.0699 2.93151C11.1824 2.49315 11.3161 2.17466 11.459 2C11.6018 1.82534 11.7052 1.75342 11.9453 1.75342C12.4651 1.75342 12.5319 1.92123 12.845 2.32877C13.0031 2.53425 13.1854 2.7911 13.4772 3.0411C13.769 3.2911 14.2006 3.50685 14.6687 3.50685V1.75342C14.538 1.75342 14.5137 1.75 14.4256 1.67123C14.3374 1.59247 14.2158 1.41096 14.0365 1.17808C13.6778 0.708904 12.9818 0 11.9453 0ZM17.0031 0.164384C15.7933 0.164384 14.8146 1.26712 14.8146 2.63014C14.8146 3.99315 15.7933 5.09589 17.0031 5.09589C18.2128 5.09589 19.1915 3.99315 19.1915 2.63014C19.1915 1.26712 18.2128 0.164384 17.0031 0.164384ZM17.0031 1.0411C17.7812 1.0411 18.4134 1.75342 18.4134 2.63014C18.4134 3.50685 17.7812 4.21918 17.0031 4.21918C16.225 4.21918 15.5927 3.50685 15.5927 2.63014C15.5927 1.75342 16.225 1.0411 17.0031 1.0411ZM10 6.82192C14.307 6.82192 17.9514 9.52397 17.9514 12.7123C17.9514 15.9041 14.307 18.6027 10 18.6027C5.69299 18.6027 2.0486 15.9041 2.0486 12.7123C2.0486 9.52397 5.69299 6.82192 10 6.82192ZM2.60787 7.61644C2.82368 7.61986 3.0486 7.67466 3.26441 7.78082C2.48325 8.44863 1.86319 9.21575 1.44069 10.0822C1.1489 9.40411 1.22793 8.55822 1.58659 8.10959C1.84799 7.78082 2.20969 7.61301 2.60787 7.61644ZM17.3921 7.61644C17.7903 7.61301 18.152 7.78082 18.4134 8.10959C18.7721 8.55822 18.8511 9.40411 18.5593 10.0822C18.1368 9.21575 17.5167 8.44863 16.7356 7.78082C16.9514 7.67466 17.1763 7.61986 17.3921 7.61644ZM6.88753 9.80822C6.10941 9.80822 5.47719 10.5205 5.47719 11.3973C5.47719 12.274 6.10941 12.9863 6.88753 12.9863C7.66564 12.9863 8.29786 12.274 8.29786 11.3973C8.29786 10.5205 7.66564 9.80822 6.88753 9.80822ZM13.1125 9.80822C12.3344 9.80822 11.7021 10.5205 11.7021 11.3973C11.7021 12.274 12.3344 12.9863 13.1125 12.9863C13.8906 12.9863 14.5228 12.274 14.5228 11.3973C14.5228 10.5205 13.8906 9.80822 13.1125 9.80822ZM6.13372 15.2055C6.62917 16.3596 8.16109 17.4795 10 17.4795C11.8389 17.4795 13.3952 16.3596 13.8906 15.2055C12.9909 15.8596 11.5714 16.3014 10 16.3014C8.42857 16.3014 7.03342 15.8596 6.13372 15.2055Z" fill="#F9FBFD"/></g></symbol><symbol id="ticks" viewBox="0 0 38 32"><g fill="none"><path d="M28.7534 3.37533L26.4398 0L16.0732 15.1353L18.3868 18.5106L28.7534 3.37533ZM35.6945 0L18.3787 25.2494L11.5602 15.3023L9.24656 18.6776L18.3787 32L38 3.37533L35.6945 0ZM0 18.6776L9.1321 32L11.4458 28.6247L2.31368 15.3023L0 18.6776Z" fill="#011C40"/></g></symbol><symbol id="yandex-dzen" viewBox="0 0 20 20"><g fill="none"><path d="M19.5586 9.55711C19.5604 9.55711 19.5617 9.55711 19.5634 9.55711C19.6852 9.55711 19.8014 9.50602 19.8839 9.41652C19.9677 9.3257 20.0092 9.20389 19.9983 9.08076C19.5599 4.25925 15.7429 0.440639 10.9212 0.00140703C10.7989 -0.00819844 10.6758 0.0315333 10.585 0.1158C10.4942 0.199629 10.4436 0.317951 10.4449 0.441512C10.5208 6.84924 11.3661 9.4676 19.5586 9.55711ZM19.5586 10.4426C11.3661 10.5321 10.5213 13.1504 10.4453 19.5581C10.444 19.6817 10.4946 19.8 10.5855 19.8839C10.6667 19.9585 10.7728 20 10.8819 20C10.895 20 10.9085 19.9996 10.9216 19.9983C15.7433 19.559 19.5604 15.7408 19.9983 10.9189C20.0092 10.7958 19.9681 10.674 19.8839 10.5831C19.7996 10.4923 19.6822 10.4474 19.5586 10.4426ZM9.04954 0.00359014C4.24316 0.455484 0.438304 4.27322 0.0021535 9.08163C-0.00876118 9.20476 0.032278 9.32658 0.116539 9.41739C0.199054 9.5069 0.315623 9.55754 0.436994 9.55754C0.43874 9.55754 0.440487 9.55754 0.442233 9.55754C8.60772 9.46367 9.45077 6.84662 9.52761 0.443259C9.52892 0.319697 9.47784 0.200939 9.38703 0.117109C9.29534 0.0332798 9.17266 -0.00776178 9.04954 0.00359014ZM0.441797 10.4421C0.306018 10.4268 0.199491 10.4915 0.116103 10.5823C0.0322781 10.6731 -0.00919773 10.7949 0.00171694 10.918C0.437867 15.7264 4.24316 19.5442 9.04954 19.9961C9.06308 19.9974 9.07705 19.9978 9.09058 19.9978C9.19973 19.9978 9.30538 19.9568 9.38659 19.8821C9.4774 19.7983 9.52848 19.6795 9.52717 19.556C9.45033 13.153 8.60772 10.536 0.441797 10.4421Z" fill="#F9FBFD"/></g></symbol></svg>

<svg xmlns="http://www.w3.org/2000/svg">

<symbol id="ok" viewBox="0 0 12 20">
  <path d="M5.875 3.025c1.196 0 2.168.96 2.168 2.138 0 1.175-.972 2.134-2.168 2.134-1.196 0-2.168-.958-2.168-2.134 0-1.179.972-2.138 2.168-2.138Zm0 7.298c2.888 0 5.237-2.316 5.237-5.16C11.112 2.315 8.763 0 5.875 0S.642 2.315.642 5.163c0 2.844 2.345 5.16 5.233 5.16Zm2.118 4.211a9.95 9.95 0 0 0 3.04-1.243 1.5 1.5 0 0 0 .482-2.084 1.545 1.545 0 0 0-2.118-.476 6.733 6.733 0 0 1-7.048 0 1.54 1.54 0 0 0-2.114.476 1.5 1.5 0 0 0 .483 2.084 9.95 9.95 0 0 0 3.04 1.243L.828 17.418a1.498 1.498 0 0 0 0 2.137 1.547 1.547 0 0 0 2.172 0l2.874-2.833 2.878 2.833a1.543 1.543 0 0 0 2.168 0 1.498 1.498 0 0 0 0-2.137l-2.928-2.884Z"/>
</symbol>

<symbol id="yandex-dzen" viewBox="0 0 20 20">
  <path d="M19.559 9.557h.004a.436.436 0 0 0 .435-.476A10.026 10.026 0 0 0 10.921 0a.437.437 0 0 0-.476.44c.076 6.408.921 9.027 9.114 9.116Zm0 .886c-8.193.09-9.038 2.707-9.114 9.115a.437.437 0 0 0 .477.44 10.025 10.025 0 0 0 9.076-9.08.437.437 0 0 0-.44-.475ZM9.049.003A10.03 10.03 0 0 0 .003 9.083a.436.436 0 0 0 .435.476h.005C8.608 9.464 9.451 6.847 9.528.443a.438.438 0 0 0-.478-.44ZM.443 10.444c-.136-.016-.243.049-.326.14a.438.438 0 0 0-.114.335 10.03 10.03 0 0 0 9.089 9.08.437.437 0 0 0 .436-.442c-.077-6.403-.92-9.02-9.085-9.114Z"/>
</symbol>

<symbol id="reddit" viewBox="0 0 20 20">
  <path d="M11.945 0c-.641 0-1.243.325-1.629.795-.386.469-.599 1.04-.754 1.643-.246.97-.322 2.045-.34 3.014-1.803.12-3.435.654-4.79 1.48-.55-.463-1.213-.72-1.848-.713-.724.007-1.41.319-1.921.96C-.313 8.4-.201 10.4.93 11.588a6.01 6.01 0 0 0-.122 1.123C.808 16.74 4.924 20 10 20c5.076 0 9.192-3.264 9.192-7.288 0-.38-.052-.756-.122-1.123 1.13-1.188 1.243-3.188.267-4.41-.51-.641-1.197-.953-1.92-.96-.636-.007-1.298.25-1.849.713-1.35-.822-2.972-1.357-4.766-1.48.025-.894.089-1.822.268-2.52.112-.439.246-.757.389-.932.143-.175.246-.247.486-.247.52 0 .587.168.9.576.158.205.34.462.632.712.292.25.724.466 1.192.466V1.753c-.131 0-.155-.003-.243-.082-.089-.079-.21-.26-.39-.493C13.678.708 12.982 0 11.947 0Zm5.058.164c-1.21 0-2.188 1.103-2.188 2.466 0 1.363.978 2.466 2.188 2.466 1.21 0 2.189-1.103 2.189-2.466 0-1.363-.98-2.466-2.189-2.466Zm0 .877c.778 0 1.41.712 1.41 1.59 0 .876-.632 1.588-1.41 1.588-.778 0-1.41-.712-1.41-1.589s.632-1.589 1.41-1.589ZM10 6.821c4.307 0 7.951 2.703 7.951 5.891 0 3.192-3.644 5.89-7.951 5.89-4.307 0-7.951-2.698-7.951-5.89 0-3.188 3.644-5.89 7.951-5.89Zm-7.392.795c.216.004.44.059.656.165-.78.668-1.4 1.435-1.823 2.301-.292-.678-.213-1.524.146-1.972a1.263 1.263 0 0 1 1.02-.494Zm14.784 0c.398-.003.76.165 1.021.494.36.448.438 1.294.146 1.972-.422-.866-1.042-1.633-1.823-2.301a1.55 1.55 0 0 1 .656-.165ZM6.888 9.808c-.779 0-1.41.713-1.41 1.59 0 .876.631 1.588 1.41 1.588.778 0 1.41-.712 1.41-1.589s-.632-1.589-1.41-1.589Zm6.225 0c-.779 0-1.41.713-1.41 1.59 0 .876.631 1.588 1.41 1.588.778 0 1.41-.712 1.41-1.589s-.632-1.589-1.41-1.589Zm-6.98 5.398C6.63 16.36 8.162 17.48 10 17.48s3.395-1.12 3.89-2.274c-.9.654-2.319 1.095-3.89 1.095-1.571 0-2.967-.441-3.866-1.095Z"/>
</symbol>

<symbol id="cruise-ship" viewBox="0 0 27 32">
  <path d="m4.405 16.396 8.811-6.46a.6.6 0 0 1 .655 0l8.854 6.46V8.688c.049-1.057-.75-1.954-1.785-2.003l-.047-.002H6.237c-1.035.024-1.856.9-1.833 1.958l.001.047v7.708ZM15.746 0h-4.362v5.347h4.362V0Z"/>
  <path d="M24.296 30.164 27 21.03l-3.795-2.718-.262-.134-8.941-6.37v18.801h-.48l-.83-.044V11.807L0 21.03l2.792 9.09 1.612 1.87h2.754s5.089.007 6.364 0c1.298.022 3.603 0 3.603 0h5.688l1.483-1.826Z"/>
</symbol>

<symbol id="ticks" viewBox="0 0 38 32">
  <path d="M28.753 3.375 26.44 0 16.073 15.135l2.314 3.376L28.753 3.375ZM35.694 0 18.38 25.25l-6.819-9.948-2.313 3.376L18.379 32 38 3.375 35.694 0ZM0 18.678 9.132 32l2.314-3.375-9.132-13.323L0 18.678Z"/>
</symbol>

<symbol id="boat" viewBox="0 0 44 32">
  <path d="M41.439 25.72 1.648 17.212c-.306-.066-.512.563-.354 1.064C3.838 26.326 9.858 32 16.867 32h23.737c.161 0 .303-.199.35-.491l.794-4.894c.068-.415-.081-.847-.31-.895ZM43.884 11.771c-.116-.345-.306-.575-.52-.629l-11-2.783c-.396-.098-.77.434-.824 1.196-.054.76.229 1.462.63 1.563l1.245.315c.182.046.319.34.319.689v2.15c0 .414-.19.737-.406.692l-2.933-.597c-.187-.036-.328-.335-.328-.69v-6.09c0-.138.021-.271.061-.385l1.282-3.648a2.5 2.5 0 0 0 .045-1.399c-.12-.448-.356-.74-.62-.764l-15.4-1.39c-.248-.005-.487.197-.632.58 0 0-2.93 7.815-3.573 9.534-.077.206-.206.316-.338.288L.812 8.355c-.21-.041-.415.085-.57.348C.09 8.968 0 9.343 0 9.738c0 1.34.092 2.654.265 3.928.038.281.167.486.319.52l41.431 8.857c.175.037.34-.167.392-.488l1.56-9.625c.064-.39.033-.815-.083-1.159ZM21.163 4.064l-.572 7.6c-.028.369-.2.632-.396.594-1.431-.274-6.806-1.347-6.806-1.347-.28-.057-.423-.662-.26-1.096l2.519-6.691c.072-.192.191-.302.316-.29l4.853.437c.216.02.376.387.346.793Zm7.95 1.015-.451 1.28c-.04.114-.062.249-.062.386v6.486c0 .413-.19.736-.405.691l-5.82-1.183c-.206-.041-.354-.4-.324-.79l.593-7.879c.026-.355.191-.614.38-.597l5.801.525c.285.025.446.63.288 1.08Zm9.02 10.088c0 .414-.189.736-.405.692 0 0-1.523-.326-2.205-.479-.184-.04-.323-.338-.323-.69v-2.012c0-.42.195-.746.415-.69l2.2.556c.182.048.318.343.318.69v1.933Zm4.05-.698-.271 1.675c-.052.317-.215.522-.39.487l-1.595-.324c-.185-.038-.327-.337-.327-.692v-1.822c0-.42.195-.746.415-.69l1.867.471c.224.057.368.483.302.895Z"/>
</symbol>

<symbol id="logo" viewBox="0 0 70 38">
  <path fill-rule="evenodd" d="m.904 31.125 13.769-18.582 3.766 2.013L27.404 0l5.585 6.659 2.078-1.704 8.054 10.22 5.716-6.813 15.977 22.763L49.42 11.769l-2.338 8.13 2.143 6.426-13.769-18.97-.15 6.473 7.814 17.297-14.614-26.79 4.222 14.48-5.91-14.092-3.247 9.369.649-6.117L16.1 30.04l.974-9.291-3.377-3.716L.904 31.125Z" clip-rule="evenodd"/>
  <path fill-rule="evenodd" d="M69.441 34.031C47.641 16.428 13.71 40.63 0 31.296c15.072 13.226 50.302-9.132 69.441 2.735Z" clip-rule="evenodd"/>
  <path fill-rule="evenodd" d="M70 35.416c-17.104-10.899-42.543 4.268-55.581.756 14.128 6.856 40.43-8.336 55.581-.756Z" clip-rule="evenodd"/>
</symbol>
